source/img/sprite/vk.svg

<svg width="30" height="30" viewBox="0 0 30 30" fill="none" xmlns="http://www.w3.org/2000/svg">
<path d="M21.617 17.4544C20.3818 16.2726 20.2935 16.2726 21.3523 14.9091C22.6758 13.1819 24.4405 11.0002 22.8523 11.0002H19.9406C19.4112 11.0002 19.323 11.3638 19.1465 11.8184C18.4406 13.5455 17.0289 15.8181 16.4995 15.4545C15.9701 15.0909 16.2348 13.7273 16.2348 11.5457C16.323 11.2729 16.2348 11.0002 16.0583 10.8184C15.8819 10.6366 15.6172 10.4548 15.3525 10.4548C14.9113 10.3639 14.4702 10.273 14.029 10.273C12.3526 10.273 11.2056 11.0002 11.8232 11.0911C12.9702 11.2729 12.882 13.8182 12.6173 14.9091C12.1761 16.8181 10.4115 13.4546 9.61736 11.7275C9.52913 11.2729 9.1762 11.0002 8.73504 11.0002H6.44099C6.08806 11.0002 5.82336 11.0911 5.82336 11.3638C5.82336 11.8184 8.02917 16.2726 10.0585 18.5452C12.0879 20.7269 14.1172 20.5451 15.529 20.5451C15.7054 20.5451 15.8819 20.4542 15.9701 20.3633C16.0583 20.2724 16.1466 20.0906 16.1466 19.9088C16.1466 18.4543 16.676 17.7271 17.6465 18.727C18.7053 19.8179 18.97 20.5451 20.2935 20.5451H22.6758C23.2934 20.5451 23.4699 20.3633 23.4699 20.0906C23.5581 19.4543 22.4993 18.2725 21.617 17.4544ZM15.3525 0.000910576C23.5581 0.182718 30.0873 7.00048 29.9991 15.2727C29.9109 23.5449 23.117 30.09 14.9113 29.9991C6.61745 29.9082 0 23.2722 0 15C0.0882327 6.63687 6.97038 -0.0899929 15.3525 0.000910576Z" fill="#F8FDFF"/>
</svg>

<svg xmlns="http://www.w3.org/2000/svg" width="30" height="30" fill="none"><path fill="#F8FDFF" d="M21.62 17.45c-1.24-1.18-1.33-1.18-.27-2.54 1.33-1.73 3.09-3.91 1.5-3.91h-2.9c-.54 0-.63.36-.8.82-.7 1.73-2.12 4-2.65 3.63-.53-.36-.27-1.72-.27-3.9a.72.72 0 0 0-.17-.73c-.18-.18-.44-.37-.7-.37-.45-.09-.89-.18-1.33-.18-1.68 0-2.82.73-2.2.82 1.14.18 1.05 2.73.79 3.82-.44 1.9-2.2-1.46-3-3.18a.87.87 0 0 0-.88-.73h-2.3c-.35 0-.62.1-.62.36 0 .46 2.2 4.91 4.24 7.19 2.03 2.18 4.06 2 5.47 2 .18 0 .35-.1.44-.19a.7.7 0 0 0 .18-.45c0-1.46.53-2.18 1.5-1.18 1.06 1.09 1.32 1.82 2.64 1.82h2.39c.61 0 .79-.19.79-.46.09-.64-.97-1.82-1.85-2.64ZM15.35 0C23.55.18 30.1 7 30 15.27A14.9 14.9 0 0 1 14.9 30 14.98 14.98 0 0 1 0 15 15.19 15.19 0 0 1 15.35 0Z"/></svg>
